images/request.svg

<svg height="250" viewBox="0 0 250 250" width="250" xmlns="http://www.w3.org/2000/svg"><path d="m158.460938 137.8125 51.976562-51.777344c3.894531-3.871094 6.082031-9.128906 6.082031-14.617187l.089844-41.882813c-.007813-2.15625-.839844-4.226562-2.332031-5.785156l-99.695313 99.414062c-8.089843 8.070313-8.105469 21.167969-.039062 29.261719l.039062.039063 70.300781 70.082031c8.121094 7.890625 21.078126 7.785156 29.070313-.234375s8.054687-20.976562.132813-29.070312zm0 0" fill="#008c62"/><path d="m208.472656 21.421875h-156.574218c-12.722657 0-22.082032 9.582031-22.082032 22.636719v163.402344c0 11.640624 9.011719 21.066406 21.070313 21.066406 11.632812 0 21.066406-8.882813 21.066406-21.066406v-145.71875h104.210937l38.113282-37.992188c-1.539063-1.53125-3.636719-2.371094-5.804688-2.328125zm0 0" fill="#00e6a0"/></svg>

<svg xmlns="http://www.w3.org/2000/svg" xmlns:xlink="http://www.w3.org/1999/xlink" width="250px" height="250px" viewBox="0 0 250 250" version="1.1">
<g id="surface1">
<path style=" stroke:none;fill-rule:nonzero;fill:rgb(0%,54.901963%,38.431373%);fill-opacity:1;" d="M 158.460938 137.8125 L 210.4375 86.035156 C 214.332031 82.164062 216.519531 76.90625 216.519531 71.417969 L 216.609375 29.535156 C 216.601562 27.378906 215.769531 25.308594 214.277344 23.75 L 114.582031 123.164062 C 106.492188 131.234375 106.476562 144.332031 114.542969 152.425781 L 114.582031 152.464844 L 184.882812 222.546875 C 193.003906 230.4375 205.960938 230.332031 213.953125 222.3125 C 221.945312 214.292969 222.007812 201.335938 214.085938 193.242188 Z M 158.460938 137.8125 "/>
<path style=" stroke:none;fill-rule:nonzero;fill:rgb(0%,90.196079%,62.7451%);fill-opacity:1;" d="M 208.472656 21.421875 L 51.898438 21.421875 C 39.175781 21.421875 29.816406 31.003906 29.816406 44.058594 L 29.816406 207.460938 C 29.816406 219.101562 38.828125 228.527344 50.886719 228.527344 C 62.519531 228.527344 71.953125 219.644531 71.953125 207.460938 L 71.953125 61.742188 L 176.164062 61.742188 L 214.277344 23.75 C 212.738281 22.21875 210.640625 21.378906 208.472656 21.421875 Z M 208.472656 21.421875 "/>
</g>
</svg>
